X: 222
T: Miss Anderson's Favorite
C: William Shepherd (17??-1812)
R: jig
Q: "Slowish"
B: William Shepherd "2nd Collection" 1800 p.22 #2
F: http://imslp.org/wiki/File:PMLP73094-Shepherd_Collections_HMT.pdf
N: The MS has 3/4 for the meter.
Z: 2012 John Chambers <jc:trillian.mit.edu>
M: 6/8
L: 1/8
K: Bb
F |\
B2B TBAB | c2A FGA | B2B d2B | f2d ecA |\
B2B TBAB | c2A FGA | B2d FGA | B3 B2 :|
|: f |\
f2d def | e2c cde | d2B TBAB | c2A F2f |\
f2d def | e2c cde | fdB A/B/cA |[1 TB3 B2 :|[2 TB3 TB2 |]
